Gruvbox-Material-Icons/apps/scalable/pcloud.svg

<svg width="256" height="256" style="isolation:isolate" version="1.1" viewBox="0 0 256 256" xmlns="http://www.w3.org/2000/svg">
  <g filter="url(#50Ij8ECx21ptGLUPCY8evUOO6TipJba8)">
    <linearGradient id="_lgradient_176" x1=".567" x2=".567" y1="1.071" y2="-.742" gradientTransform="matrix(244.6 0 0 228.3 5.619 11.95)" gradientUnits="userSpaceOnUse">
      <stop stop-color="#3c3836" offset="0"/>
      <stop stop-color="#504945" offset="1"/>
    </linearGradient>
    <path d="m165.6 11.95c74.06 0 84.64 10.56 84.64 84.54v59.25c0 73.99-10.58 84.54-84.64 84.54h-75.37c-74.06 0-84.64-10.56-84.64-84.54v-59.25c0-73.99 10.58-84.54 84.64-84.54h75.37z" fill="url(#_lgradient_176)"/>
  </g>
  <g opacity=".2">
    <path d="m178 130.5c-10.42 0.013-19.46 7.173-21.86 17.31h-31.44c-3.447 16.14-17.7 27.68-34.2 27.69h87.51c12.42 0 22.5-10.07 22.5-22.5 0-12.42-10.07-22.5-22.5-22.5zm-87.51 44.99c-0.25-0.011-0.501-0.024-0.752-0.039v0.039h0.752z"/>
    <circle cx="90.5" cy="140.5" r="35" vector-effect="non-scaling-stroke"/>
  </g>
  <linearGradient id="_lgradient_177" x1=".863" x2=".332" y1="1" y2=".063" gradientTransform="matrix(145 0 0 92.49 55.5 80.51)" gradientUnits="userSpaceOnUse">
    <stop stop-color="#458588" offset="0"/>
    <stop stop-color="#8ec07c" offset="1"/>
  </linearGradient>
  <path d="m89.01 103c-18.62 0.786-33.51 16.15-33.51 34.97 0 19.06 15.28 34.59 34.24 34.99v8e-3h0.75 87.51c12.42 0 22.5-10.07 22.5-22.5 0-8.285-4.479-15.52-11.15-19.42 0.737-2.139 1.132-4.436 1.132-6.823 0-11.73-9.521-21.25-21.25-21.25-0.744 0-1.479 0.039-2.198 0.131-7.769-13.52-22.35-22.63-39.05-22.63-16.65 0-31.2 9.065-38.98 22.52z" fill="url(#_lgradient_177)"/>
  <g opacity=".1">
    <path d="m178 128c-10.42 0.013-19.46 7.173-21.86 17.31h-66.4v2.5h66.4c2.402-10.13 11.45-17.29 21.86-17.31 12 0.015 21.88 9.449 22.44 21.44 0.034-0.479 0.051-0.96 0.054-1.44 0-12.42-10.07-22.5-22.5-22.5z" fill="#ebdbb2"/>
  </g>
  <g opacity=".2">
    <path d="m128 93c-19.33 0-35 15.67-35 35s15.67 35 35 35c19.33 0 35-15.67 35-35s-15.67-35-35-35zm0 7.499c15.19 0 27.5 12.31 27.5 27.5s-12.31 27.5-27.5 27.5-27.5-12.31-27.5-27.5 12.31-27.5 27.5-27.5z"/>
  </g>
  <path d="m128 90.5c-19.33 0-35 15.67-35 35 0 19.33 15.67 35 35 35 19.33 0 35-15.67 35-35 0-19.33-15.67-35-35-35zm0 7.499c15.19 0 27.5 12.31 27.5 27.5 0 15.19-12.31 27.5-27.5 27.5s-27.5-12.31-27.5-27.5c0-15.18 12.31-27.5 27.5-27.5z" fill="#ebdbb2"/>
  <g opacity=".2">
    <path d="m118.2 110.5c-2.909 0-5.249 2.279-5.249 5.112v27.27c0 2.832 2.34 5.116 5.249 5.116 2.908 0 4.612-2.287 4.75-5.116v-4.614h11c7.731 0 14-6.101 14-13.63s-6.267-14.13-14-14.13h-15.75zm4.75 10.12h11.38c2.128 0 3.623 1.95 3.623 4.004 0 2.053-1.495 3.543-3.623 3.495h-11.38v-7.499z"/>
  </g>
  <path d="m118.2 108c-2.909 0-5.249 2.279-5.249 5.111v27.27c0 2.833 2.34 5.117 5.249 5.117 2.908 0 4.612-2.288 4.75-5.117v-4.613h11c7.731 0 14-6.101 14-13.63 0-7.531-6.267-14.13-14-14.13h-15.75zm4.75 10.12h11.38c2.128 0 3.623 1.95 3.623 4.003s-1.495 3.543-3.623 3.496h-11.38v-7.499z" fill="#ebdbb2"/>
  <g opacity=".4">
    <path d="m167 103.1c0.719-0.086 1.453-0.124 2.195-0.124 11.73 0 21.25 9.513 21.25 21.25-0.01 0.345-0.028 0.69-0.054 1.035-0.77-11.14-10.03-19.78-21.19-19.78-0.31 0-0.618 7e-3 -0.925 0.018 2.994 6.017 4.674 12.8 4.674 19.98-0.014 0.346-0.032 0.691-0.054 1.035-0.247-7.61-2.375-14.73-5.935-20.91-0.018 1e-3 -0.036 3e-3 -0.054 5e-3 -0.816-1.317-0.347-0.723-1.449-2.297 0.03-5e-3 0.06-0.011 0.09-0.015-8.047-12.25-21.9-20.3-37.59-20.31-15.56 0.015-29.3 7.934-37.37 19.99h7e-3c-0.102 0.15-0.194 0.285-0.254 0.371-0.402 0.613-0.789 1.237-1.16 1.87-0.029 0.062-0.07 0.154-0.117 0.259-0.01 0-0.02 1e-3 -0.029 2e-3 -3.669 6.33-5.835 13.64-6.015 21.46-0.026-0.488-0.044-0.976-0.054-1.465 0-7.154 1.67-13.92 4.647-19.92-17.63 1.402-31.56 15.91-32.09 33.88-0.028-0.487-0.046-0.976-0.054-1.464 0-18.78 14.92-34.11 33.5-34.97 7.778-13.46 22.33-22.52 38.99-22.52 16.71 0 31.29 9.105 39.05 22.62z" fill="#ebdbb2"/>
  </g>
  <g opacity=".4">
    <linearGradient id="_lgradient_178" x1=".517" x2=".517" y2="1" gradientTransform="matrix(244.6 0 0 228.3 5.68 11.95)" gradientUnits="userSpaceOnUse">
      <stop stop-color="#ebdbb2" offset="0"/>
      <stop stop-color="#ebdbb2" stop-opacity=".098" offset=".125"/>
      <stop stop-color="#282828" stop-opacity=".098" offset=".925"/>
      <stop stop-color="#282828" stop-opacity=".498" offset="1"/>
    </linearGradient>
    <path d="m165.1 11.95c4.328-0.01 8.656 0.04 12.98 0.138 3.875 0.078 7.751 0.226 11.63 0.452 3.453 0.196 6.905 0.481 10.35 0.854 3.059 0.335 6.118 0.786 9.148 1.346 2.715 0.502 5.4 1.14 8.046 1.916 2.4 0.698 4.751 1.562 7.023 2.584 2.115 0.943 4.141 2.063 6.059 3.35 1.84 1.238 3.561 2.653 5.135 4.215 1.564 1.572 2.98 3.282 4.219 5.119 1.289 1.916 2.41 3.94 3.364 6.042 1.023 2.28 1.889 4.618 2.597 7.005 0.777 2.643 1.417 5.325 1.918 8.037 0.561 3.026 1.013 6.072 1.348 9.127 0.374 3.439 0.659 6.878 0.856 10.33 0.226 3.861 0.373 7.732 0.462 11.59 0.088 4.323 0.138 8.646 0.128 12.96v58.21c0.01 4.323-0.04 8.636-0.128 12.96-0.089 3.871-0.236 7.732-0.462 11.59-0.197 3.448-0.482 6.897-0.856 10.33-0.335 3.055-0.787 6.111-1.348 9.137-0.501 2.702-1.141 5.384-1.918 8.027-0.708 2.387-1.574 4.735-2.597 7.005-0.954 2.112-2.075 4.126-3.364 6.042-1.239 1.837-2.655 3.557-4.219 5.119-1.574 1.562-3.295 2.977-5.135 4.215-1.918 1.287-3.944 2.407-6.059 3.35-2.272 1.022-4.623 1.886-7.023 2.594-2.646 0.776-5.331 1.414-8.046 1.906-3.03 0.569-6.089 1.011-9.148 1.346-3.443 0.373-6.895 0.658-10.35 0.854-3.875 0.226-7.751 0.374-11.63 0.462-4.328 0.088-8.656 0.138-12.98 0.128h-74.13c-4.328 0.01-8.656-0.04-12.98-0.128-3.875-0.088-7.751-0.236-11.63-0.462-3.453-0.196-6.905-0.481-10.35-0.854-3.059-0.335-6.118-0.777-9.148-1.346-2.715-0.492-5.4-1.13-8.046-1.906-2.4-0.708-4.751-1.572-7.023-2.594-2.115-0.943-4.141-2.063-6.059-3.35-1.84-1.238-3.561-2.653-5.135-4.215-1.564-1.562-2.98-3.282-4.219-5.119-1.289-1.916-2.41-3.93-3.364-6.042-1.023-2.27-1.889-4.618-2.597-7.005-0.777-2.643-1.417-5.325-1.918-8.027-0.561-3.026-1.013-6.082-1.348-9.137-0.374-3.429-0.659-6.878-0.856-10.33-0.226-3.861-0.373-7.722-0.462-11.59-0.088-4.323-0.138-8.636-0.128-12.96v-58.21c-0.01-4.313 0.04-8.636 0.128-12.96 0.089-3.861 0.236-7.732 0.462-11.59 0.197-3.448 0.482-6.887 0.856-10.33 0.335-3.055 0.787-6.101 1.348-9.127 0.501-2.712 1.141-5.394 1.918-8.037 0.708-2.387 1.574-4.725 2.597-7.005 0.954-2.102 2.075-4.126 3.364-6.042 1.239-1.837 2.655-3.547 4.219-5.119 1.574-1.562 3.295-2.977 5.135-4.215 1.918-1.287 3.944-2.407 6.059-3.35 2.272-1.022 4.623-1.886 7.023-2.584 2.646-0.776 5.331-1.414 8.046-1.916 3.03-0.56 6.089-1.011 9.148-1.346 3.443-0.373 6.895-0.658 10.35-0.854 3.875-0.226 7.751-0.374 11.63-0.452 4.328-0.098 8.656-0.148 12.98-0.138h74.13zm0.01 4.009c4.298-0.01 8.597 0.039 12.9 0.127 3.827 0.089 7.653 0.236 11.48 0.452 3.384 0.197 6.767 0.472 10.13 0.845 2.971 0.315 5.932 0.747 8.863 1.297 2.577 0.472 5.134 1.081 7.653 1.818 2.223 0.648 4.396 1.454 6.501 2.397 1.909 0.855 3.738 1.867 5.469 3.026 1.623 1.091 3.138 2.338 4.525 3.724 1.387 1.385 2.636 2.898 3.738 4.519 1.16 1.729 2.174 3.547 3.029 5.443 0.945 2.112 1.751 4.284 2.4 6.494 0.748 2.515 1.348 5.06 1.83 7.634 0.541 2.928 0.974 5.875 1.298 8.842 0.374 3.36 0.65 6.73 0.846 10.11 0.217 3.822 0.374 7.634 0.453 11.46 0.088 4.293 0.137 8.577 0.137 12.87v58.21c0 4.293-0.049 8.577-0.137 12.87-0.079 3.822-0.236 7.644-0.453 11.46-0.196 3.38-0.472 6.75-0.846 10.12-0.324 2.957-0.757 5.904-1.298 8.832-0.482 2.574-1.082 5.119-1.83 7.634-0.649 2.22-1.455 4.382-2.4 6.494-0.855 1.896-1.869 3.724-3.029 5.443-1.102 1.631-2.351 3.144-3.738 4.529-1.387 1.376-2.902 2.623-4.525 3.714-1.731 1.159-3.56 2.171-5.469 3.026-2.105 0.953-4.278 1.749-6.501 2.397-2.519 0.737-5.076 1.346-7.653 1.818-2.931 0.55-5.892 0.982-8.863 1.306-3.364 0.364-6.747 0.649-10.13 0.836-3.826 0.216-7.652 0.373-11.48 0.452-4.298 0.098-8.597 0.137-12.9 0.137h-0.01-74.13-0.01c-4.298 0-8.597-0.039-12.9-0.137-3.827-0.079-7.653-0.236-11.48-0.452-3.384-0.187-6.767-0.472-10.13-0.836-2.971-0.324-5.932-0.756-8.863-1.306-2.577-0.472-5.134-1.081-7.653-1.818-2.223-0.648-4.396-1.444-6.501-2.397-1.909-0.855-3.738-1.867-5.469-3.026-1.623-1.091-3.138-2.338-4.525-3.714-1.387-1.385-2.636-2.898-3.738-4.529-1.16-1.719-2.174-3.547-3.029-5.443-0.945-2.112-1.751-4.274-2.4-6.494-0.748-2.515-1.348-5.06-1.83-7.634-0.541-2.928-0.974-5.875-1.298-8.832-0.374-3.37-0.649-6.74-0.846-10.12-0.217-3.812-0.374-7.634-0.453-11.46-0.088-4.293-0.137-8.577-0.137-12.87v-58.21c0-4.293 0.049-8.577 0.137-12.87 0.079-3.822 0.236-7.634 0.453-11.46 0.197-3.38 0.472-6.75 0.846-10.11 0.324-2.967 0.757-5.914 1.298-8.842 0.482-2.574 1.082-5.119 1.83-7.634 0.649-2.21 1.455-4.382 2.4-6.494 0.855-1.896 1.869-3.714 3.029-5.443 1.102-1.621 2.351-3.134 3.738-4.519 1.387-1.386 2.902-2.633 4.525-3.724 1.731-1.159 3.56-2.171 5.469-3.026 2.105-0.943 4.278-1.749 6.501-2.397 2.519-0.737 5.076-1.346 7.653-1.818 2.931-0.55 5.892-0.982 8.863-1.297 3.364-0.373 6.747-0.648 10.13-0.845 3.826-0.216 7.652-0.363 11.48-0.452 4.298-0.088 8.597-0.137 12.9-0.127h0.01 74.13 0.01z" fill="url(#_lgradient_178)" fill-rule="evenodd"/>
  </g>
</svg>

<svg xmlns="http://www.w3.org/2000/svg" style="isolation:isolate" width="256" height="256" viewBox="0 0 256 256">
 <defs>
  <filter id="50Ij8ECx21ptGLUPCY8evUOO6TipJba8" width="400%" height="400%" x="-200%" y="-200%" color-interpolation-filters="sRGB" filterUnits="objectBoundingBox">
   <feGaussianBlur xmlns="http://www.w3.org/2000/svg" in="SourceGraphic" stdDeviation="4.294"/>
   <feOffset xmlns="http://www.w3.org/2000/svg" dx="0" dy="4" result="pf_100_offsetBlur"/>
   <feFlood xmlns="http://www.w3.org/2000/svg" flood-opacity=".4"/>
   <feComposite xmlns="http://www.w3.org/2000/svg" in2="pf_100_offsetBlur" operator="in" result="pf_100_dropShadow"/>
   <feBlend xmlns="http://www.w3.org/2000/svg" in="SourceGraphic" in2="pf_100_dropShadow" mode="normal"/>
  </filter>
 </defs>
 <g filter="url(#50Ij8ECx21ptGLUPCY8evUOO6TipJba8)">
  <linearGradient id="_lgradient_176" x1=".567" x2=".567" y1="1.071" y2="-.742" gradientTransform="matrix(244.648,0,0,228.338,5.619,11.952)" gradientUnits="userSpaceOnUse">
   <stop offset="0%" style="stop-color:#3c3836"/>
   <stop offset="100%" style="stop-color:#504945"/>
  </linearGradient>
  <path fill="url(#_lgradient_176)" d="M 165.628 11.952 C 239.684 11.952 250.267 22.509 250.267 96.495 L 250.267 155.746 C 250.267 229.733 239.684 240.29 165.628 240.29 L 90.259 240.29 C 16.203 240.29 5.619 229.733 5.619 155.746 L 5.619 96.495 C 5.619 22.509 16.203 11.952 90.259 11.952 L 165.628 11.952 Z"/>
 </g>
 <g>
  <g opacity=".2">
   <path d="M 178.003 130.5 C 167.588 130.513 158.543 137.673 156.141 147.807 L 124.7 147.807 C 121.253 163.947 106.999 175.485 90.495 175.494 L 178.003 175.494 C 190.428 175.494 200.5 165.421 200.5 152.997 C 200.5 140.572 190.428 130.5 178.003 130.5 L 178.003 130.5 Z M 90.495 175.494 C 90.245 175.483 89.994 175.47 89.743 175.455 L 89.743 175.494 L 90.495 175.494 Z"/>
  </g>
  <g opacity=".2">
   <circle cx="90.495" cy="140.498" r="34.995" vector-effect="non-scaling-stroke"/>
  </g>
  <linearGradient id="_lgradient_177" x1=".863" x2=".332" y1="1" y2=".063" gradientTransform="matrix(145,0,0,92.488,55.5,80.506)" gradientUnits="userSpaceOnUse">
   <stop offset="0%" style="stop-color:#458588"/>
   <stop offset="100%" style="stop-color:#8ec07c"/>
  </linearGradient>
  <path fill="url(#_lgradient_177)" d="M 89.006 103.029 C 70.382 103.815 55.5 119.182 55.5 137.999 C 55.5 157.062 70.777 172.586 89.745 172.986 L 89.745 172.994 L 90.495 172.994 L 178.003 172.994 C 190.427 172.994 200.5 162.922 200.5 150.497 C 200.5 142.212 196.021 134.973 189.35 131.074 C 190.087 128.935 190.482 126.638 190.482 124.251 C 190.482 112.524 180.961 103.003 169.235 103.003 C 168.491 103.003 167.756 103.042 167.037 103.134 C 159.268 89.618 144.685 80.506 127.99 80.506 C 111.339 80.506 96.789 89.571 89.006 103.029 Z"/>
  <g opacity=".1">
   <path fill="#ebdbb2" d="M 178.003 128 C 167.588 128.013 158.543 135.173 156.141 145.307 L 89.743 145.307 L 89.743 147.807 L 156.141 147.807 C 158.543 137.673 167.588 130.513 178.003 130.5 C 190.005 130.515 199.881 139.949 200.446 151.937 C 200.48 151.458 200.497 150.977 200.5 150.497 C 200.5 138.072 190.428 128 178.003 128 L 178.003 128 Z"/>
  </g>
  <g opacity=".2">
   <path d="M 127.99 93.005 C 108.663 93.005 92.995 108.673 92.995 128 C 92.995 147.327 108.663 162.995 127.99 162.995 C 147.318 162.995 162.986 147.327 162.986 128 C 162.986 108.673 147.318 93.005 127.99 93.005 Z M 127.99 100.504 C 143.176 100.504 155.487 112.814 155.487 128 C 155.487 143.186 143.176 155.496 127.99 155.496 C 112.804 155.496 100.494 143.186 100.494 128 C 100.494 112.814 112.804 100.504 127.99 100.504 Z"/>
  </g>
  <path fill="#ebdbb2" d="M 127.99 90.505 C 108.663 90.505 92.995 106.173 92.995 125.5 C 92.995 144.828 108.663 160.496 127.99 160.496 C 147.318 160.496 162.986 144.828 162.986 125.5 C 162.986 106.173 147.318 90.505 127.99 90.505 Z M 127.99 98.004 C 143.176 98.004 155.487 110.315 155.487 125.5 C 155.487 140.686 143.176 152.997 127.99 152.997 C 112.804 152.997 100.494 140.686 100.494 125.5 C 100.494 110.315 112.804 98.004 127.99 98.004 Z"/>
  <g opacity=".2">
   <path d="M 118.241 110.502 C 115.332 110.502 112.992 112.781 112.992 115.614 L 112.992 142.881 C 112.992 145.713 115.332 147.997 118.241 147.997 C 121.149 147.997 122.853 145.71 122.991 142.881 L 122.991 138.267 L 133.99 138.267 C 141.721 138.267 147.988 132.166 147.988 124.636 C 147.988 117.106 141.721 110.502 133.99 110.502 L 118.241 110.502 Z M 122.991 120.618 L 134.366 120.618 C 136.494 120.618 137.989 122.568 137.989 124.622 C 137.989 126.675 136.494 128.165 134.366 128.117 L 122.991 128.117 L 122.991 120.618 Z"/>
  </g>
  <path fill="#ebdbb2" d="M 118.241 108.003 C 115.332 108.003 112.992 110.282 112.992 113.114 L 112.992 140.381 C 112.992 143.214 115.332 145.498 118.241 145.498 C 121.149 145.498 122.853 143.21 122.991 140.381 L 122.991 135.768 L 133.99 135.768 C 141.721 135.768 147.988 129.667 147.988 122.137 C 147.988 114.606 141.721 108.003 133.99 108.003 L 118.241 108.003 Z M 122.991 118.119 L 134.366 118.119 C 136.494 118.119 137.989 120.069 137.989 122.122 C 137.989 124.175 136.494 125.665 134.366 125.618 L 122.991 125.618 L 122.991 118.119 Z"/>
  <g opacity=".4">
   <path fill="#ebdbb2" d="M 167.04 103.127 C 167.759 103.041 168.493 103.003 169.235 103.003 C 180.969 103.003 190.482 112.516 190.482 124.251 C 190.472 124.596 190.454 124.941 190.428 125.286 C 189.658 114.147 180.4 105.505 169.235 105.503 C 168.925 105.503 168.617 105.51 168.31 105.521 C 171.304 111.538 172.984 118.323 172.984 125.5 C 172.97 125.846 172.952 126.191 172.93 126.535 C 172.683 118.925 170.555 111.806 166.995 105.624 C 166.977 105.625 166.959 105.627 166.941 105.629 C 166.125 104.312 166.594 104.906 165.492 103.332 C 165.522 103.327 165.552 103.321 165.582 103.317 C 157.535 91.069 143.679 83.016 127.99 83.006 C 112.431 83.021 98.69 90.94 90.618 103 C 90.62 103 90.623 103 90.625 103 C 90.523 103.15 90.431 103.285 90.371 103.371 C 89.969 103.984 89.582 104.608 89.211 105.241 C 89.182 105.303 89.141 105.395 89.094 105.5 C 89.084 105.5 89.074 105.501 89.065 105.502 C 85.396 111.832 83.23 119.147 83.05 126.965 C 83.024 126.477 83.006 125.989 82.996 125.5 C 82.996 118.346 84.666 111.581 87.643 105.578 C 70.013 106.98 56.086 121.488 55.554 139.463 C 55.526 138.976 55.508 138.487 55.5 137.999 C 55.5 119.215 70.421 103.885 88.999 103.028 C 96.777 89.566 111.326 80.506 127.99 80.506 C 144.696 80.506 159.276 89.611 167.04 103.127 Z"/>
  </g>
 </g>
 <g opacity=".4">
  <linearGradient id="_lgradient_178" x1=".517" x2=".517" y1="0" y2="1" gradientTransform="matrix(244.65,0,0,228.34,5.68,11.95)" gradientUnits="userSpaceOnUse">
   <stop offset="0%" style="stop-color:#ebdbb2"/>
   <stop offset="12.5%" stop-opacity=".098" style="stop-color:#ebdbb2"/>
   <stop offset="92.5%" stop-opacity=".098" style="stop-color:#282828"/>
   <stop offset="100%" stop-opacity=".498" style="stop-color:#282828"/>
  </linearGradient>
  <path fill="url(#_lgradient_178)" fill-rule="evenodd" d="M 165.068 11.951 C 169.396 11.941 173.724 11.991 178.052 12.089 C 181.927 12.167 185.803 12.315 189.678 12.541 C 193.131 12.737 196.583 13.022 200.026 13.395 C 203.085 13.73 206.144 14.181 209.174 14.741 C 211.889 15.243 214.574 15.881 217.22 16.657 C 219.62 17.355 221.971 18.219 224.243 19.241 C 226.358 20.184 228.384 21.304 230.302 22.591 C 232.142 23.829 233.863 25.244 235.437 26.806 C 237.001 28.378 238.417 30.088 239.656 31.925 C 240.945 33.841 242.066 35.865 243.02 37.967 C 244.043 40.247 244.909 42.585 245.617 44.972 C 246.394 47.615 247.034 50.297 247.535 53.009 C 248.096 56.035 248.548 59.081 248.883 62.136 C 249.257 65.575 249.542 69.014 249.739 72.462 C 249.965 76.323 250.112 80.194 250.201 84.055 C 250.289 88.378 250.339 92.701 250.329 97.014 L 250.329 155.226 C 250.339 159.549 250.289 163.862 250.201 168.185 C 250.112 172.056 249.965 175.917 249.739 179.778 C 249.542 183.226 249.257 186.675 248.883 190.104 C 248.548 193.159 248.096 196.215 247.535 199.241 C 247.034 201.943 246.394 204.625 245.617 207.268 C 244.909 209.655 244.043 212.003 243.02 214.273 C 242.066 216.385 240.945 218.399 239.656 220.315 C 238.417 222.152 237.001 223.872 235.437 225.434 C 233.863 226.996 232.142 228.411 230.302 229.649 C 228.384 230.936 226.358 232.056 224.243 232.999 C 221.971 234.021 219.62 234.885 217.22 235.593 C 214.574 236.369 211.889 237.007 209.174 237.499 C 206.144 238.068 203.085 238.51 200.026 238.845 C 196.583 239.218 193.131 239.503 189.678 239.699 C 185.803 239.925 181.927 240.073 178.052 240.161 C 173.724 240.249 169.396 240.299 165.068 240.289 L 90.942 240.289 C 86.614 240.299 82.286 240.249 77.958 240.161 C 74.083 240.073 70.207 239.925 66.332 239.699 C 62.879 239.503 59.427 239.218 55.984 238.845 C 52.925 238.51 49.866 238.068 46.836 237.499 C 44.121 237.007 41.436 236.369 38.79 235.593 C 36.39 234.885 34.039 234.021 31.767 232.999 C 29.652 232.056 27.626 230.936 25.708 229.649 C 23.868 228.411 22.147 226.996 20.573 225.434 C 19.009 223.872 17.593 222.152 16.354 220.315 C 15.065 218.399 13.944 216.385 12.99 214.273 C 11.967 212.003 11.101 209.655 10.393 207.268 C 9.616 204.625 8.976 201.943 8.475 199.241 C 7.914 196.215 7.462 193.159 7.127 190.104 C 6.753 186.675 6.468 183.226 6.271 179.778 C 6.045 175.917 5.898 172.056 5.809 168.185 C 5.721 163.862 5.671 159.549 5.681 155.226 L 5.681 97.014 C 5.671 92.701 5.721 88.378 5.809 84.055 C 5.898 80.194 6.045 76.323 6.271 72.462 C 6.468 69.014 6.753 65.575 7.127 62.136 C 7.462 59.081 7.914 56.035 8.475 53.009 C 8.976 50.297 9.616 47.615 10.393 44.972 C 11.101 42.585 11.967 40.247 12.99 37.967 C 13.944 35.865 15.065 33.841 16.354 31.925 C 17.593 30.088 19.009 28.378 20.573 26.806 C 22.147 25.244 23.868 23.829 25.708 22.591 C 27.626 21.304 29.652 20.184 31.767 19.241 C 34.039 18.219 36.39 17.355 38.79 16.657 C 41.436 15.881 44.121 15.243 46.836 14.741 C 49.866 14.181 52.925 13.73 55.984 13.395 C 59.427 13.022 62.879 12.737 66.332 12.541 C 70.207 12.315 74.083 12.167 77.958 12.089 C 82.286 11.991 86.614 11.941 90.942 11.951 L 165.068 11.951 Z M 165.078 15.96 C 169.376 15.95 173.675 15.999 177.973 16.087 C 181.8 16.176 185.626 16.323 189.452 16.539 C 192.836 16.736 196.219 17.011 199.583 17.384 C 202.554 17.699 205.515 18.131 208.446 18.681 C 211.023 19.153 213.58 19.762 216.099 20.499 C 218.322 21.147 220.495 21.953 222.6 22.896 C 224.509 23.751 226.338 24.763 228.069 25.922 C 229.692 27.013 231.207 28.26 232.594 29.646 C 233.981 31.031 235.23 32.544 236.332 34.165 C 237.492 35.894 238.506 37.712 239.361 39.608 C 240.306 41.72 241.112 43.892 241.761 46.102 C 242.509 48.617 243.109 51.162 243.591 53.736 C 244.132 56.664 244.565 59.611 244.889 62.578 C 245.263 65.938 245.539 69.308 245.735 72.688 C 245.952 76.51 246.109 80.322 246.188 84.144 C 246.276 88.437 246.325 92.721 246.325 97.014 C 246.325 97.014 246.325 97.014 246.325 97.014 L 246.325 155.226 C 246.325 155.226 246.325 155.226 246.325 155.226 C 246.325 159.519 246.276 163.803 246.188 168.096 C 246.109 171.918 245.952 175.74 245.735 179.552 C 245.539 182.932 245.263 186.302 244.889 189.672 C 244.565 192.629 244.132 195.576 243.591 198.504 C 243.109 201.078 242.509 203.623 241.761 206.138 C 241.112 208.358 240.306 210.52 239.361 212.632 C 238.506 214.528 237.492 216.356 236.332 218.075 C 235.23 219.706 233.981 221.219 232.594 222.604 C 231.207 223.98 229.692 225.227 228.069 226.318 C 226.338 227.477 224.509 228.489 222.6 229.344 C 220.495 230.297 218.322 231.093 216.099 231.741 C 213.58 232.478 211.023 233.087 208.446 233.559 C 205.515 234.109 202.554 234.541 199.583 234.865 C 196.219 235.229 192.836 235.514 189.452 235.701 C 185.626 235.917 181.8 236.074 177.973 236.153 C 173.675 236.251 169.376 236.29 165.078 236.29 C 165.078 236.29 165.078 236.29 165.068 236.29 L 90.942 236.29 C 90.932 236.29 90.932 236.29 90.932 236.29 C 86.634 236.29 82.335 236.251 78.037 236.153 C 74.21 236.074 70.384 235.917 66.558 235.701 C 63.174 235.514 59.791 235.229 56.427 234.865 C 53.456 234.541 50.495 234.109 47.564 233.559 C 44.987 233.087 42.43 232.478 39.911 231.741 C 37.688 231.093 35.515 230.297 33.41 229.344 C 31.501 228.489 29.672 227.477 27.941 226.318 C 26.318 225.227 24.803 223.98 23.416 222.604 C 22.029 221.219 20.78 219.706 19.678 218.075 C 18.518 216.356 17.504 214.528 16.649 212.632 C 15.704 210.52 14.898 208.358 14.249 206.138 C 13.501 203.623 12.901 201.078 12.419 198.504 C 11.878 195.576 11.445 192.629 11.121 189.672 C 10.747 186.302 10.472 182.932 10.275 179.552 C 10.058 175.74 9.901 171.918 9.822 168.096 C 9.734 163.803 9.685 159.519 9.685 155.226 C 9.685 155.226 9.685 155.226 9.685 155.226 L 9.685 97.014 C 9.685 97.014 9.685 97.014 9.685 97.014 C 9.685 92.721 9.734 88.437 9.822 84.144 C 9.901 80.322 10.058 76.51 10.275 72.688 C 10.472 69.308 10.747 65.938 11.121 62.578 C 11.445 59.611 11.878 56.664 12.419 53.736 C 12.901 51.162 13.501 48.617 14.249 46.102 C 14.898 43.892 15.704 41.72 16.649 39.608 C 17.504 37.712 18.518 35.894 19.678 34.165 C 20.78 32.544 22.029 31.031 23.416 29.646 C 24.803 28.26 26.318 27.013 27.941 25.922 C 29.672 24.763 31.501 23.751 33.41 22.896 C 35.515 21.953 37.688 21.147 39.911 20.499 C 42.43 19.762 44.987 19.153 47.564 18.681 C 50.495 18.131 53.456 17.699 56.427 17.384 C 59.791 17.011 63.174 16.736 66.558 16.539 C 70.384 16.323 74.21 16.176 78.037 16.087 C 82.335 15.999 86.634 15.95 90.932 15.96 C 90.932 15.96 90.932 15.96 90.942 15.96 L 165.068 15.96 C 165.078 15.96 165.078 15.96 165.078 15.96 Z"/>
 </g>
</svg>
